!!!!SEGMENT: pl-sa--95-a-ii-35--009_anonim--omnes-sancti-triumphantes.krn
!!!cenid: 17xx:1460
!!!COM: Anonim
!!!COM-rismID: pe30004985
!!!CDT:
!!!CNT:
!!!OTL: Omnes sancti triumphantes
!!!PDT:
!!!AGN:
!!!SMS-siglum: PL-SA
!!!SMS-shelfmark: 95/A II 35
!!!SMS-shelfwork: 009 W
!!!SMS-variant:
!!!SMS-altvar:
!!!NIFC-rismSourceID: 1001041197
!!!NIFC-rismChildID: 1001041197
!!!NIFC-islandoraID: none
!!!URL-pdf-islandora:
!!!URL-scan: https://bc.bdsandomierz.pl/dlibra/publication/1376/edition/1344/content @EN{Scan in the Sandomierz Diocese Digital Library} @PL{Skany w portalu Cyfrowa Biblioteka Diecezjalna w Sandomierzu}
!!!IIIF:
!!!ONB-nifc: 9nus
!!!AIN: 1 alto 1 organ 2 violn
!!!key: C
**kern	**fba	**kern	**dynam	**kern	**dynam	**kern	**text
*part4	*part4	*part3	*part3	*part2	*part2	*part1	*part1
*staff4	*	*staff3	*	*staff2	*	*staff1	*staff1
*I"Organo	*	*I"Violino 2do	*	*I"Violino 1mo	*	*I"Vox Cantans alternatè	*
*	*	*I'vl 2	*	*I'vl 1	*	*I'V	*
*Iorgan	*	*Ivioln	*	*Ivioln	*	*Ialto	*
*ICklav	*	*ICstr	*	*ICstr	*	*ICvox	*
*clefF4	*	*clefG2	*	*clefG2	*	*clefC1	*
*k[]	*	*k[]	*	*k[]	*	*k[]	*
*C:	*	*C:	*	*C:	*	*C:	*
*M2/4	*	*M2/4	*	*M2/4	*	*M2/4	*
=1	=1	=1	=1	=1	=1	=1	=1
!LO:TX:b:t=OmneS Scti	!	!	!	!	!	!	!
!LO:TX:b:t=9nus	!	!LO:TX:b:t=9nus	!	!LO:TX:b:t=9nus	!	!	!
!LO:TX:t=Grave	!	!LO:TX:b:t=Omnes Sancti	!	!LO:TX:b:t=Omnes Sancti	!	!LO:TX:t=9nus	!
4C/	.	16c/LL	.	16c/LL	.	2r	.
.	.	16d/	.	16d/	.	.	.
.	.	16e/	.	16e/	.	.	.
.	.	16f/JJ	.	16f/JJ	.	.	.
4r	.	16g/LL	.	16g/LL	.	.	.
.	.	16a/	.	16a/	.	.	.
.	.	16b/	.	16b/	.	.	.
.	.	16cc/JJ	.	16cc/JJ	.	.	.
=2	=2	=2	=2	=2	=2	=2	=2
!	!	!LO:TX:t=P:problem=mixed beam	!	!LO:TX:t=P:problem=mixed beam	!	!	!
8C/L	.	8c/L	.	8c/L	.	2r	.
8D/	.	8c/	.	8c/	.	.	.
8E/	.	8c/	.	8c/	.	.	.
8D/J	.	8cc\J	.	8cc\J	.	.	.
=3	=3	=3	=3	=3	=3	=3	=3
!	!	!LO:TX:t=P:problem=mixed beam	!	!LO:TX:t=P:problem=mixed beam	!	!	!
8C/L	.	8c/L	.	8c/L	.	2r	.
8D/	.	8c/	.	8c/	.	.	.
8E/	.	8c/	.	8c/	.	.	.
8D/J	.	8cc\J	.	8cc\J	.	.	.
=4	=4	=4	=4	=4	=4	=4	=4
8C/L	.	4c/	.	8c/L	.	2r	.
8D/	.	.	.	8c/	.	.	.
8E/	.	8r	.	8c/	.	.	.
8C/J	.	8g/	.	8g/J	.	.	.
=5	=5	=5	=5	=5	=5	=5	=5
8GG/L	.	4G/	.	4G/	.	2r	.
8AA/	.	.	.	.	.	.	.
8BB/	.	8r	.	8r	.	.	.
8C/J	.	8e/	.	8e/	.	.	.
=6	=6	=6	=6	=6	=6	=6	=6
8GG/L	7 5	4d/	.	8f/L	.	2r	.
8r	.	.	.	16e/L	.	.	.
.	.	.	.	16d/JJ	.	.	.
8C/J	.	4c/	.	8e/L	.	.	.
8r	.	.	.	16d/L	.	.	.
.	.	.	.	16c/JJ	.	.	.
=7	=7	=7	=7	=7	=7	=7	=7
8GG/L	7 5	4d/	.	8f/L	.	2r	.
8r	.	.	.	16e/L	.	.	.
.	.	.	.	16d/JJ	.	.	.
8C/J	.	4c/	.	8e/L	.	.	.
8r	.	.	.	16d/L	.	.	.
.	.	.	.	16c/JJ	.	.	.
!	!	!	!	!LO:LB:g=original	!	!	!
=8	=8	=8	=8	=8	=8	=8	=8
8GG/	.	4d/	.	8f/L	.	2r	.
8r	.	.	.	16e/L	.	.	.
.	.	.	.	16d/JJ	.	.	.
8C/	.	4c/	.	8e/L	.	.	.
8ryy	.	.	.	16d/L	.	.	.
.	.	.	.	16c/JJ	.	.	.
!LO:LB:g=original	!	!	!	!	!	!	!
=9	=9	=9	=9	=9	=9	=9	=9
8GG/L	.	4d/	.	4g/	.	2r	.
8AA/	.	.	.	.	.	.	.
8BB/	.	8r	.	8r	.	.	.
8C/J	.	8cc\	.	8ee\	.	.	.
!	!	!LO:LB:g=original	!	!	!	!	!
=10	=10	=10	=10	=10	=10	=10	=10
8G\L	7 5	8dd\L	.	8ff\L	.	2r	.
8r	.	16cc\L	.	16ee\L	.	.	.
.	.	16b\JJ	.	16dd\JJ	.	.	.
8C\J	.	8cc\L	.	8ee\L	.	.	.
8r	.	8cc\J	.	16dd\L	.	.	.
.	.	.	.	16cc\JJ	.	.	.
=11	=11	=11	=11	=11	=11	=11	=11
8G\L	7 5	8dd\L	.	8ff\L	.	2r	.
8r	.	16cc\L	.	16ee\L	.	.	.
.	.	16b\JJ	.	16dd\JJ	.	.	.
8C\J	.	8cc\L	.	8ee\L	.	.	.
8r	.	8cc\J	.	16dd\L	.	.	.
.	.	.	.	16cc\JJ	.	.	.
=12	=12	=12	=12	=12	=12	=12	=12
8G\L	7 5	8dd\L	.	8ff\L	.	2r	.
8r	.	16cc\L	.	16ee\L	.	.	.
.	.	16b\JJ	.	16dd\JJ	.	.	.
8C\J	.	8cc\L	.	8ee\L	.	.	.
8r	.	8cc\J	.	16dd\L	.	.	.
.	.	.	.	16cc\JJ	.	.	.
=13	=13	=13	=13	=13	=13	=13	=13
!	!	!	!	!LO:TX:t=P:problem=mixed beam	!	!	!
8BB/L	.	4b/	.	8gg\L	.	2r	.
8AA/	.	.	.	8g/	.	.	.
8GG/	.	8r	.	8g/	.	.	.
8C/J	.	8ee\	.	8gg\J	.	.	.
=14	=14	=14	=14	=14	=14	=14	=14
4F\	.	8ff\L	.	8aa\L	.	2r	.
.	.	16dd\L	.	16ff\L	.	.	.
.	.	16ee\JJ	.	16gg\JJ	.	.	.
4r	.	8ff\L	.	8aa\L	.	.	.
.	.	8dd\J	.	8ff\J	.	.	.
=15	=15	=15	=15	=15	=15	=15	=15
4G\	.	8b/	.	8dd\	.	2r	.
.	.	4g/	.	4b/	.	.	.
4r	.	.	.	.	.	.	.
.	.	8dd\	.	8ff\	.	.	.
!	!	!	!	!LO:LB:g=original	!	!	!
=16	=16	=16	=16	=16	=16	=16	=16
4E\	5	8ee\L	.	8gg\L	.	2r	.
.	.	16cc\L	.	16ee\L	.	.	.
.	.	16dd\JJ	.	16ff\JJ	.	.	.
4r	.	8ee\L	.	8gg\L	.	.	.
.	.	8cc\J	.	8ee\J	.	.	.
=17	=17	=17	=17	=17	=17	=17	=17
4A\	.	4a/	.	8cc\	.	2r	.
.	.	.	.	4a/	.	.	.
8r	.	8r	.	.	.	.	.
8r	.	8a/	.	8ee\	.	.	.
=18	=18	=18	=18	=18	=18	=18	=18
4D/	.	4f/	.	8ff\L	.	2r	.
.	.	.	.	16dd\L	.	.	.
.	.	.	.	16ee\JJ	.	.	.
4r	.	8r	.	8ff\L	.	.	.
.	.	8a/	.	8dd\J	.	.	.
!	!	!LO:LB:g=original	!	!	!	!	!
=19	=19	=19	=19	=19	=19	=19	=19
8G\L	.	4g/	.	8b/	.	2r	.
8A\	.	.	.	4g/	.	.	.
8B\	.	8r	.	.	.	.	.
8G\J	.	8g/	.	8b/	.	.	.
=20	=20	=20	=20	=20	=20	=20	=20
8E\L	.	[4e/	.	[4cc\	.	2r	.
8D\	.	.	.	.	.	.	.
8C\	.	16e/LL]	.	16cc\LL]	.	.	.
.	.	16f/	.	16dd\	.	.	.
8G\J	.	16e/	.	16cc\	.	.	.
.	.	16d/JJ	.	16b\JJ	.	.	.
!LO:LB:g=original	!	!	!	!	!	!	!
=21	=21	=21	=21	=21	=21	=21	=21
8E\L	.	[4e/	.	[4cc\	.	2r	.
8D\	.	.	.	.	.	.	.
8C\	.	16e/LL]	.	16cc\LL]	.	.	.
.	.	16f/	.	16dd\	.	.	.
8G\J	.	16e/	.	16cc\	.	.	.
.	.	16d/JJ	.	16b\JJ	.	.	.
=22	=22	=22	=22	=22	=22	=22	=22
8c\L	.	4e/	.	8cc\L	.	2r	.
16B\L	.	.	.	16b\L	.	.	.
16A\JJ	.	.	.	16a\JJ	.	.	.
8G\L	.	8r	.	8g/L	.	.	.
8E\J	.	8e/	.	8e/J	.	.	.
=23	=23	=23	=23	=23	=23	=23	=23
8F\L	.	8f/L	.	8f/L	.	2r	.
16E\L	.	16e/L	.	16e/L	.	.	.
16D\JJ	.	16d/JJ	.	16d/JJ	.	.	.
!LO:TX:t=P:problem=mixed beam	!	!	!	!	!	!	!
8G\L	.	8g/L	.	8g/L	.	.	.
8GG/J	.	8G/J	.	8G/J	.	.	.
!	!	!	!	!LO:LB:g=original	!	!	!
=24	=24	=24	=24	=24	=24	=24	=24
4C/	.	4c/	.	4c/	.	4r	.
!	!	!	!	!	!LO:DY:a:t=piano	!	!
4r	.	8g/L	.	8g/L	p	8g/	Om-
.	.	8e/J	.	8cc/J	.	8cc\	-nes
=25	=25	=25	=25	=25	=25	=25	=25
!	!	!	!LO:DY:a:t=piano	!	!	!	!
2r	.	8e/L	p	8cc\L	.	8cc\	San-
.	.	8e/	.	8cc\	.	8cc\	-cti
.	.	8e/	.	8cc\	.	8cc\	tri-
.	.	8e/J	.	8cc\J	.	8cc\	-um-
=26	=26	=26	=26	=26	=26	=26	=26
2r	.	[4e/	.	[4cc\	.	4cc\	-phan-
.	.	16e/LL]	.	16cc\LL]	.	16cc\LL	.
.	.	16f/	.	16dd\	.	16dd\	.
.	.	16e/	.	16cc\	.	16cc\	.
.	.	16d/JJ	.	16b\JJ	.	16b\JJ	.
=27	=27	=27	=27	=27	=27	=27	=27
2r	.	[4e/	.	4cc\	.	4cc\	.
.	.	16e/LL]	.	16cc\LL	.	16cc\LL	.
.	.	16f/	.	16dd\	.	16dd\	.
.	.	16e/	.	16cc\	.	16cc\	.
.	.	16d/JJ	.	16b\JJ	.	16b\JJ	.
!	!	!LO:LB:g=original	!	!	!	!	!
=28	=28	=28	=28	=28	=28	=28	=28
2r	.	8e/L	.	8cc\L	.	8cc\	.
.	.	8e/	.	8g\	.	8g/	-tes
.	.	8g/	.	8g\	.	8g/	et
.	.	8g/J	.	8dd\J	.	8dd\	in
=29	=29	=29	=29	=29	=29	=29	=29
2r	.	8g/L	.	8dd\L	.	8dd\	cae-
.	.	8g/	.	8dd\	.	8dd\	-lis
!	!	!	!	!	!	!LO:LB:g=original	!
.	.	8g/	.	8dd\	.	8dd\	ju-
.	.	8g/J	.	8dd\J	.	8dd\	-bi-
=30	=30	=30	=30	=30	=30	=30	=30
2r	.	4g/	.	4dd\	.	4dd\	-lan-
.	.	8r	.	16dd\LL	.	16dd\LL	.
.	.	.	.	16ee\	.	16ee\	.
.	.	8g/	.	16dd\	.	16dd\	.
.	.	.	.	16cc\JJ	.	16cc\JJ	.
=31	=31	=31	=31	=31	=31	=31	=31
2r	.	4G/	.	4dd\	.	4dd\	.
.	.	8r	.	16dd\LL	.	16dd\LL	.
.	.	.	.	16ee\	.	16ee\	.
.	.	8g/	.	16dd\	.	16dd\	.
.	.	.	.	16cc\JJ	.	16cc\JJ	.
=32	=32	=32	=32	=32	=32	=32	=32
2r	.	4G/	.	8dd\L	.	8dd\	.
.	.	.	.	8g\J	.	8g/	-tes
.	.	4r	.	4r	.	4r	.
!	!	!	!	!LO:LB:g=original	!	!	!
=33	=33	=33	=33	=33	=33	=33	=33
2r	.	8c/L	.	8ee\L	.	8ee\	pe-
.	.	8B/	.	8dd\	.	8dd\	-ren-
.	.	8c/	.	8ee\	.	8ee\	-ni
.	.	8e/J	.	8cc\J	.	8cc\	lae-
=34	=34	=34	=34	=34	=34	=34	=34
2r	.	4g/	.	8.b/L	.	8.b\	-ti-
.	.	.	.	16a/K	.	16a\	-ti-
.	.	8r	.	8g/	.	8g/	-a
.	.	8e/	.	8cc/J	.	8cc\	lae-
=35	=35	=35	=35	=35	=35	=35	=35
2r	.	4d/	.	4b/	.	4b\	-ti-
.	.	8r	.	16b/LL	.	16b\LL	.
.	.	.	.	16dd/	.	16dd\	.
.	.	8d/	.	16b/	.	16b\	.
.	.	.	.	16g/JJ	.	16g\JJ	.
=36	=36	=36	=36	=36	=36	=36	=36
2r	.	4e/	.	4cc\	.	4cc\	.
.	.	8r	.	16cc\LL	.	16cc\LL	.
.	.	.	.	16dd\	.	16dd\	.
.	.	8e/	.	16cc\	.	16cc\	.
.	.	.	.	16a\JJ	.	16a\JJ	.
!	!	!	!	!	!	!LO:LB:g=original	!
=37	=37	=37	=37	=37	=37	=37	=37
2r	.	4d/	.	8.b/L	.	8.b\	.
.	.	.	.	16a/Jk	.	16a\	-ti-
.	.	4g/	.	4g/	.	4g/	-a
!	!	!LO:LB:g=original	!	!	!	!	!
=38	=38	=38	=38	=38	=38	=38	=38
!	!	!	!LO:DY:a:t=forte	!	!LO:DY:a:t=forte	!	!
4C/	.	16c/LL	f	16c/LL	f	2r	.
.	.	16d/	.	16d/	.	.	.
.	.	16e/	.	16e/	.	.	.
.	.	16f/JJ	.	16f/JJ	.	.	.
4r	.	16g/LL	.	16g/LL	.	.	.
.	.	16a/	.	16a/	.	.	.
.	.	16b/	.	16b/	.	.	.
.	.	16cc/JJ	.	16cc/JJ	.	.	.
=39	=39	=39	=39	=39	=39	=39	=39
!	!	!	!	!LO:TX:t=P:problem=mixed beam	!	!	!
8C/L	.	4c/	.	8c/L	.	2r	.
8D/	.	.	.	8c/	.	.	.
8E/	.	8r	.	8c/	.	.	.
8D/J	.	8e/	.	8cc\J	.	.	.
=40	=40	=40	=40	=40	=40	=40	=40
!	!	!	!	!LO:TX:t=P:problem=mixed beam	!	!	!
8C/L	.	4c/	.	8c/L	.	2r	.
8D/	.	.	.	8c/	.	.	.
8E/	.	8r	.	8c/	.	.	.
8D/J	.	8e/	.	8cc\J	.	.	.
!	!	!	!	!LO:LB:g=original	!	!	!
=41	=41	=41	=41	=41	=41	=41	=41
8C/L	.	4c/	.	8c/L	.	2r	.
8D/	.	.	.	8c/	.	.	.
8E/	.	8r	.	8c/	.	.	.
8C/J	.	8g/	.	8g/J	.	.	.
=42	=42	=42	=42	=42	=42	=42	=42
8GG/L	.	4G/	.	4G/	.	2r	.
8AA/	.	.	.	.	.	.	.
8BB/	.	8r	.	8r	.	.	.
8C/J	.	8e/	.	8e/	.	.	.
!LO:LB:g=original	!	!	!	!	!	!	!
=43	=43	=43	=43	=43	=43	=43	=43
8GG/L	7 5	4d/	.	8f/L	.	2r	.
8r	.	.	.	16e/L	.	.	.
.	.	.	.	16d/JJ	.	.	.
8C/J	.	4c/	.	8e/L	.	.	.
8r	.	.	.	16d/L	.	.	.
.	.	.	.	16c/JJ	.	.	.
=44	=44	=44	=44	=44	=44	=44	=44
8GG/L	7 5	4d/	.	8f/L	.	2r	.
8r	.	.	.	16e/L	.	.	.
.	.	.	.	16d/JJ	.	.	.
8C/J	.	4c/	.	8e/L	.	.	.
8r	.	.	.	16d/L	.	.	.
.	.	.	.	16c/JJ	.	.	.
=45	=45	=45	=45	=45	=45	=45	=45
8F\L	.	8f/L	.	8f/L	.	2r	.
16E\L	.	16e/L	.	16e/L	.	.	.
16D\JJ	.	16d/JJ	.	16d/JJ	.	.	.
!LO:TX:t=P:problem=mixed beam	!	!	!	!	!	!	!
8G\L	.	8g/L	.	8g/L	.	.	.
8GG/J	.	8G/J	.	8G/J	.	.	.
=46	=46	=46	=46	=46	=46	=46	=46
4C/	.	4c/	.	4c/	.	4r	.
!	!	!	!LO:DY:a:t=piano	!	!LO:DY:a:t=piano	!	!
4r	.	8g/L	p	8g/L	p	8g/	Om-
.	.	8e/J	.	8cc/J	.	8cc\	-nes
=47	=47	=47	=47	=47	=47	=47	=47
2r	.	8e/L	.	8cc\L	.	8cc\	S(an)-
.	.	8e/	.	8cc\	.	8cc\	-cti
.	.	8e/	.	8cc\	.	8cc\	tri-
.	.	8e/J	.	8cc\J	.	8cc\	-um-
!	!	!LO:LB:g=original	!	!	!	!	!
=48	=48	=48	=48	=48	=48	=48	=48
2r	.	[4e/	.	4cc\	.	4cc\	-phan-
.	.	16e/LL]	.	16cc\LL	.	16cc\LL	.
.	.	16f/	.	16dd\	.	16dd\	.
.	.	16e/	.	16cc\	.	16cc\	.
.	.	16d/JJ	.	16b\JJ	.	16b\JJ	.
=49	=49	=49	=49	=49	=49	=49	=49
2r	.	[4e/	.	4cc\	.	16cc\LL	.
.	.	.	.	.	.	16dd\	.
.	.	.	.	.	.	16cc\	.
.	.	.	.	.	.	16b\JJ	.
.	.	16e/LL]	.	16cc\LL	.	16cc\LL	.
.	.	16f/	.	16dd\	.	16dd\	.
.	.	16e/	.	16cc\	.	16cc\	.
.	.	16d/JJ	.	16b\JJ	.	16b\JJ	.
!	!	!	!	!LO:LB:g=original	!	!	!
=50	=50	=50	=50	=50	=50	=50	=50
2r	.	8e/L	.	8cc\L	.	8cc\	.
.	.	8e/J	.	8g\	.	8g/	-tes
.	.	8g/L	.	8g\	.	8g/	et
.	.	8g/J	.	8dd\J	.	8dd\	in
=51	=51	=51	=51	=51	=51	=51	=51
2r	.	4g/	.	8dd\L	.	8dd\	cae-
.	.	.	.	8dd\	.	8dd\	-lis
.	.	8r	.	8dd\	.	8dd\	ju-
.	.	8g/	.	8dd\J	.	8dd\	-bi-
!	!	!	!	!	!	!LO:LB:g=original	!
=52	=52	=52	=52	=52	=52	=52	=52
2r	.	4g/	.	4dd\	.	4dd\	-lan-
.	.	8r	.	16dd\LL	.	16dd\LL	.
.	.	.	.	16ee\	.	16ee\	.
.	.	8G/	.	16dd\	.	16dd\	.
.	.	.	.	16cc\JJ	.	16cc\JJ	.
=53	=53	=53	=53	=53	=53	=53	=53
!	!	!LO:TX:t=P:problem=takt zapisany powtórką (ołówkiem)	!	!	!	!	!
2r	.	4g/	.	4dd\	.	4dd\	.
.	.	8r	.	16dd\LL	.	16dd\LL	.
.	.	.	.	16ee\	.	16ee\	.
.	.	8G/	.	16dd\	.	16dd\	.
.	.	.	.	16cc\JJ	.	16cc\JJ	.
=54	=54	=54	=54	=54	=54	=54	=54
2r	.	4g/	.	8dd\L	.	8dd\	.
.	.	.	.	8g\J	.	8g/	-tes
.	.	4r	.	4r	.	4r	.
=55	=55	=55	=55	=55	=55	=55	=55
2r	.	8c/L	.	8ee\L	.	8ee\	pe-
.	.	8B/	.	8dd\	.	8dd\	-ren-
.	.	8c/	.	8ee\	.	8ee\	-ni
.	.	8f/J	.	8cc\J	.	8cc\	lae-
=56	=56	=56	=56	=56	=56	=56	=56
2r	.	4g/	.	8.b/L	.	8.b\	-ti-
.	.	.	.	16a/K	.	16a\	-ti-
.	.	8r	.	8g/	.	8g/	-a
.	.	8c/	.	8cc/J	.	8cc\	lae-
=57	=57	=57	=57	=57	=57	=57	=57
2r	.	4g/	.	4b\	.	4b\	-ti-
.	.	8r	.	16b\LL	.	16b\LL	.
.	.	.	.	16dd\	.	16dd\	.
.	.	8G/	.	16b\	.	16b\	.
.	.	.	.	16g\JJ	.	16g\JJ	.
=58	=58	=58	=58	=58	=58	=58	=58
2r	.	4e/	.	4cc\	.	4cc\	.
.	.	8r	.	16cc\LL	.	16cc\LL	.
.	.	.	.	16dd\	.	16dd\	.
.	.	8e/	.	16cc\	.	16cc\	.
.	.	.	.	16a\JJ	.	16a\JJ	.
!	!	!LO:LB:g=original	!	!	!	!	!
=59	=59	=59	=59	=59	=59	=59	=59
2r	.	4g/	.	8.b/L	.	8.b\	.
.	.	.	.	16a/Jk	.	16a\	-ti-
.	.	4G/	.	4g/	.	4g/	-a
!	!	!	!	!LO:LB:g=original	!	!LO:LB:g=original	!
=60	=60	=60	=60	=60	=60	=60	=60
2r	.	8f/L	.	8a/L	.	8a\	nos-
.	.	8f/	.	8a/	.	8a\	-tro
.	.	8f/	.	8a/	.	8a\	De-
.	.	8f/J	.	8a/J	.	8a\	-o
=61	=61	=61	=61	=61	=61	=61	=61
2r	.	8f/L	.	8a/L	.	8a\	prae-
.	.	8f/	.	16g/L	.	16g/LL	-sen-
.	.	.	.	16f/JJ	.	16f/JJ	.
!	!	!	!	!LO:TX:t=P:problem=mixed beam	!	!	!
.	.	8e/	.	8g/L	.	8g/	-ta-
.	.	8e/J	.	8ee\J	.	8ee\	-te
=62	=62	=62	=62	=62	=62	=62	=62
2r	.	8e/L	.	8g/L	.	8g/	vo-
.	.	8e/	.	8g/	.	8g/	-ta
.	.	8e/	.	8g/	.	8g/	si-
.	.	8e/J	.	8g/J	.	8g/	-mul
=63	=63	=63	=63	=63	=63	=63	=63
2r	.	8e/L	.	8g/L	.	8g/	nos
.	.	8c/	.	16f/L	.	16f/LL	ser-
.	.	.	.	16e/JJ	.	16e/JJ	.
!	!	!	!	!LO:TX:t=P:problem=mixed beam	!	!	!
.	.	8d/	.	8f/L	.	8f/	-va-
.	.	8f/J	.	8dd\J	.	8dd\	-te
=64	=64	=64	=64	=64	=64	=64	=64
2r	.	8g/L	.	8.b/L	.	8.b\	sta-
.	.	8f/	.	.	.	.	.
.	.	.	.	16g/K	.	16g/	-bi-
!	!	!	!	!	!	!	!LO:MO:mod=le
.	.	8e/	.	8cc/	.	8cc\	-ler
.	.	8f/J	.	8a/J	.	8a\	in
=65	=65	=65	=65	=65	=65	=65	=65
2r	.	8g/L	.	8.b\L	.	8.b\	gra-
.	.	8G/J	.	.	.	.	.
.	.	.	.	16cc\Jk	.	16cc\	-ti-
.	.	4c/	.	4cc\	.	4cc\	-a
!	!	!	!	!	!	!LO:LB:g=original	!
=66	=66	=66	=66	=66	=66	=66	=66
2r	.	8f/L	.	8a/L	.	8a\	nos-
.	.	8f/	.	8a/	.	8a\	-tro
.	.	8f/	.	8a/	.	8a\	De-
.	.	8f/J	.	8a/J	.	8a\	-o
=67	=67	=67	=67	=67	=67	=67	=67
2r	.	8f/L	.	8a/L	.	8a\	prae-
.	.	8f/	.	16g/L	.	16g/LL	-sen-
.	.	.	.	16f/JJ	.	16f/JJ	.
!	!	!	!	!LO:TX:t=P:problem=mixed beam	!	!	!
.	.	8e/	.	8g/L	.	8g/	-ta-
.	.	8e/J	.	8ee\J	.	8ee\	-te
=68	=68	=68	=68	=68	=68	=68	=68
2r	.	8e/L	.	8g/L	.	8g/	vo-
.	.	8e/	.	8g/	.	8g/	-ta
.	.	8e/	.	8g/	.	8g/	si-
.	.	8e/J	.	8g/J	.	8g/	-mul
!	!	!LO:LB:g=original	!	!LO:LB:g=original	!	!	!
=69	=69	=69	=69	=69	=69	=69	=69
2r	.	8e/L	.	8g/L	.	8g/	nos
.	.	8c/	.	16f/L	.	16f/LL	ser-
.	.	.	.	16e/JJ	.	16e/JJ	.
!	!	!	!	!LO:TX:t=P:problem=mixed beam	!	!	!
.	.	8d/	.	8f/L	.	8f/	-va-
.	.	8f/J	.	8dd\J	.	8dd\	-te
=70	=70	=70	=70	=70	=70	=70	=70
2r	.	8g/L	.	8.b/L	.	8.b\	sta-
.	.	8f/	.	.	.	.	.
.	.	.	.	16g/Jk	.	16g/	-bi-
!	!	!	!	!	!	!	!LO:MO:mod=le
.	.	8e/	.	8cc/L	.	8cc\	-ler
.	.	8f/J	.	8a/J	.	8a\	in
=71	=71	=71	=71	=71	=71	=71	=71
2r	.	8g/L	.	8.b\L	.	8.b\	gra-
.	.	8G/J	.	.	.	.	.
.	.	.	.	16cc\Jk	.	16cc\	-ti-
.	.	4c/	.	4cc\	.	4cc\	-a
!	!	!	!	!	!	!LO:LB:g=original	!
=72	=72	=72	=72	=72	=72	=72	=72
!	!	!	!LO:DY:a:t=forte	!	!LO:DY:a:t=forte	!	!
4C/	.	16c/LL	f	16c/LL	f	2r	.
.	.	16d/	.	16d/	.	.	.
.	.	16e/	.	16e/	.	.	.
.	.	16f/JJ	.	16f/JJ	.	.	.
4r	.	16g/LL	.	16g/LL	.	.	.
.	.	16a/	.	16a/	.	.	.
.	.	16b/	.	16b/	.	.	.
.	.	16cc/JJ	.	16cc/JJ	.	.	.
=73	=73	=73	=73	=73	=73	=73	=73
!	!	!	!	!LO:TX:t=P:problem=mixed beam	!	!	!
8C/L	.	4c/	.	8c/L	.	2r	.
8D/	.	.	.	8c/	.	.	.
8E/	.	8r	.	8c/	.	.	.
8D/J	.	8e/	.	8cc\J	.	.	.
=74	=74	=74	=74	=74	=74	=74	=74
!	!	!	!	!LO:TX:t=P:problem=mixed beam	!	!	!
8C/L	.	4c/	.	8c/L	.	2r	.
8D/	.	.	.	8c/	.	.	.
8E/	.	8r	.	8c/	.	.	.
8D/J	.	8e/	.	8cc\J	.	.	.
=75	=75	=75	=75	=75	=75	=75	=75
8C/L	.	4c/	.	8c/L	.	2r	.
8D/	.	.	.	8c/	.	.	.
8E/	.	8r	.	8c/	.	.	.
8C/J	.	8g/	.	8g/J	.	.	.
!LO:LB:g=original	!	!	!	!	!	!	!
=76	=76	=76	=76	=76	=76	=76	=76
8GG/L	.	4G/	.	4G/	.	2r	.
8AA/	.	.	.	.	.	.	.
8BB/	.	8r	.	8r	.	.	.
8C/J	.	8e/	.	8e/	.	.	.
=77	=77	=77	=77	=77	=77	=77	=77
8GG/L	.	4d/	.	8f/L	.	2r	.
8r	.	.	.	16e/L	.	.	.
.	.	.	.	16d/JJ	.	.	.
8C/J	.	4c/	.	8e/L	.	.	.
8r	.	.	.	16d/L	.	.	.
.	.	.	.	16c/JJ	.	.	.
!	!	!LO:LB:g=original	!	!LO:LB:g=original	!	!	!
=78	=78	=78	=78	=78	=78	=78	=78
8GG/L	7 5	4d/	.	8f/L	.	2r	.
8r	.	.	.	16e/L	.	.	.
.	.	.	.	16d/JJ	.	.	.
8C/J	.	4c/	.	8e/L	.	.	.
8r	.	.	.	16d/L	.	.	.
.	.	.	.	16c/JJ	.	.	.
=79	=79	=79	=79	=79	=79	=79	=79
8GG/L	7_ 5_	4d/	.	8f/L	.	2r	.
8r	.	.	.	16e/L	.	.	.
.	.	.	.	16d/JJ	.	.	.
8C/J	.	4c/	.	8e/L	.	.	.
8r	.	.	.	16d/L	.	.	.
.	.	.	.	16c/JJ	.	.	.
=80	=80	=80	=80	=80	=80	=80	=80
8GG/L	.	4g/	.	4g/	.	2r	.
8AA/	X	.	.	.	.	.	.
8BB/	.	8r	.	8r	.	.	.
8C/J	.	8cc\	.	8ee\	.	.	.
=81	=81	=81	=81	=81	=81	=81	=81
8G\L	7_ 5_	4b\	.	8ff\L	.	2r	.
8r	.	.	.	16ee\L	.	.	.
.	.	.	.	16dd\JJ	.	.	.
8C\J	.	4cc\	.	8ee\L	.	.	.
8r	.	.	.	16dd\L	.	.	.
.	.	.	.	16cc\JJ	.	.	.
=82	=82	=82	=82	=82	=82	=82	=82
8G\L	.	4b\	.	8ff\L	.	2r	.
8r	.	.	.	16ee\L	.	.	.
.	.	.	.	16dd\JJ	.	.	.
8C\J	.	4cc\	.	8ee\L	.	.	.
8r	.	.	.	16dd\L	.	.	.
.	.	.	.	16cc\JJ	.	.	.
=83	=83	=83	=83	=83	=83	=83	=83
8G\L	X	8dd\L	.	8ff\L	.	2r	.
8r	.	8b\	.	16ee\L	.	.	.
.	.	.	.	16dd\JJ	.	.	.
8C\J	.	8cc\	.	8ee\L	.	.	.
8r	.	8cc\J	.	16dd\L	.	.	.
.	.	.	.	16cc\JJ	.	.	.
=84	=84	=84	=84	=84	=84	=84	=84
!	!	!	!	!LO:TX:t=P:problem=mixed beam	!	!	!
8G\L	.	4b/	.	8gg\L	.	2r	.
8A\	.	.	.	8g/	.	.	.
8B\	.	8r	.	8g/	.	.	.
8c\J	.	8ee\	.	8gg\J	.	.	.
=85	=85	=85	=85	=85	=85	=85	=85
4F\	.	8ff\L	.	8aa\L	.	2r	.
.	.	16dd\L	.	16ff\L	.	.	.
.	.	16ee\JJ	.	16gg\JJ	.	.	.
4r	.	8ff\L	.	8aa\L	.	.	.
.	.	8dd\J	.	8ff\J	.	.	.
!LO:LB:g=original	!	!	!	!LO:LB:g=original	!	!	!
=86	=86	=86	=86	=86	=86	=86	=86
4G\	.	4b/	.	8dd\	.	2r	.
.	.	.	.	4b/	.	.	.
4r	.	8r	.	.	.	.	.
.	.	8dd\	.	8ff\	.	.	.
=87	=87	=87	=87	=87	=87	=87	=87
4E\	5	8ee\L	.	8gg\L	.	2r	.
.	.	16cc\L	.	16ee\L	.	.	.
.	.	16dd\JJ	.	16ff\JJ	.	.	.
4r	.	8ee\L	.	8gg\L	.	.	.
.	.	8cc\J	.	8ee\J	.	.	.
=88	=88	=88	=88	=88	=88	=88	=88
4A\	5	4a/	.	8cc\	.	2r	.
.	.	.	.	4a/	.	.	.
4r	.	8r	.	.	.	.	.
.	.	8cc\	.	8ee\	.	.	.
!	!	!LO:LB:g=original	!	!	!	!	!
=89	=89	=89	=89	=89	=89	=89	=89
4D/	.	8dd\L	.	8ff\L	.	2r	.
.	.	16b\L	.	16dd\L	.	.	.
.	.	16cc\JJ	.	16ee\JJ	.	.	.
8r	.	8dd\L	.	8ff\L	.	.	.
8F\	.	8a\J	.	8cc\J	.	.	.
=90	=90	=90	=90	=90	=90	=90	=90
8G\L	.	8g/	.	8b/	.	2r	.
8A\	.	4b/	.	4g/	.	.	.
8B\	.	.	.	.	.	.	.
8G\J	.	8g/	.	8b/	.	.	.
=91	=91	=91	=91	=91	=91	=91	=91
8E/L	.	[4e/	.	[4cc\	.	2r	.
8D/	.	.	.	.	.	.	.
8C/	.	16e/LL]	.	16cc\LL]	.	.	.
.	.	16f/	.	16dd\	.	.	.
8D/J	.	16e/	.	16cc\	.	.	.
.	.	16d/JJ	.	16b\JJ	.	.	.
=92	=92	=92	=92	=92	=92	=92	=92
8E/L	.	[4e/	.	[4cc\	.	2r	.
8D/	.	.	.	.	.	.	.
8C/	.	16e/LL]	.	16cc\LL]	.	.	.
.	.	16f/	.	16dd\	.	.	.
8D/J	.	16e/	.	16cc\	.	.	.
.	.	16d/JJ	.	16b\JJ	.	.	.
=93	=93	=93	=93	=93	=93	=93	=93
8E/L	.	4e/	.	8cc/L	.	2r	.
8D/	.	.	.	16b/L	.	.	.
.	.	.	.	16a/JJ	.	.	.
8C/	.	8r	.	8g/L	.	.	.
8E/J	.	8e/	.	8e/J	.	.	.
=94	=94	=94	=94	=94	=94	=94	=94
8F\L	.	8f/L	.	8f/L	.	2r	.
16E\L	.	16e/L	.	16e/L	.	.	.
16D\JJ	.	16d/JJ	.	16d/JJ	.	.	.
!LO:TX:t=P:problem=mixed beam	!	!	!	!	!	!	!
8G\L	.	8g/L	.	8g/L	.	.	.
8GG/J	.	8G/J	.	8G/J	.	.	.
!	!	!	!	!LO:LB:g=original	!	!	!
=95	=95	=95	=95	=95	=95	=95	=95
!	!	!LO:TX:t=Finis	!	!LO:TX:t=Finis	!	!	!
4C;;/	.	4c;</	.	4c;</	.	2r;<	.
4r	.	4r	.	4r	.	.	.
=96||	=96||	=96||	=96||	=96||	=96||	=96||	=96||
2r	.	4a/	.	8a/L	.	8a\	Om-
.	.	.	.	8b/	.	8b\	-nes
.	.	4r	.	8cc/	.	8cc\	S(an)-
.	.	.	.	8dd/J	.	8dd\	-cti
=97	=97	=97	=97	=97-	=97-	=97	=97
2r	.	4g#X/	.	8ee\L	.	8ee\	qui
.	.	.	.	16dd\L	.	16dd\LL	re-
.	.	.	.	16cc\JJ	.	16cc\JJ	.
.	.	4e/	.	8b/L	.	8b\	-gna-
.	.	.	.	8e/J	.	8e/	-tus
=98	=98	=98	=98	=98	=98	=98	=98
2r	.	4a/	.	8a/L	.	8a\	X(ris)-
.	.	.	.	8b/	.	8b\	-to
!	!	!	!	!	!	!LO:TX:t=P:iuncto?:problem	!
.	.	4r	.	8cc/	.	8cc\	<...>-
!	!	!	!	!LO:TX:t=P:problem=brak kreski taktowej	!	!	!
.	.	.	.	8dd/J	.	8dd\	-<...>
!	!	!LO:LB:g=original	!	!	!	!	!
=99	=99	=99	=99	=99-	=99-	=99	=99
2r	.	4g#X/	.	8ee\L	.	8ee\	que(m)
.	.	.	.	16dd\L	.	16dd\LL	lau-
.	.	.	.	16cc\JJ	.	16cc\JJ	.
.	.	4e/	.	8b/L	.	8b\	-da-
.	.	.	.	8e/J	.	8e/	-tur
=100	=100	=100	=100	=100	=100	=100	=100
!	!	!	!	!	!	!LO:TX:t=P:problem=cunctis precu?	!
2r	.	8a/L	.	(16cc\LL	.	16cc\LL	<...>-
.	.	.	.	16b\)	.	16b\JJ	.
.	.	8g#X/	.	(16b\	.	16b\LL	-<....>
.	.	.	.	16cc\JJ)	.	16cc\JJ	.
.	.	8a/	.	(16cc\LL	.	16cc\LL	<...>-
.	.	.	.	16b\)	.	16b\JJ	.
.	.	8e/J	.	(16b\	.	16b\LL	-<..>
.	.	.	.	16cc\JJ)	.	16cc\JJ	.
!	!	!	!	!	!	!LO:PB:g=original	!
=101	=101	=101	=101	=101	=101	=101	=101
2r	.	8d/L	.	8.cc\L	.	8.cc\	hos-
.	.	8B/J	.	.	.	.	.
.	.	.	.	16dd\Jk	.	16dd\	-ti-
.	.	4e/	.	4b/	.	4b\	-bus
=102	=102	=102	=102	=102	=102	=102	=102
!	!	!	!	!	!LO:DY:a:t=piano	!	!
2r	.	8a/L	.	8a/L	p	8a\	per
.	.	8g#X/	.	8b/	.	8b\	vos
.	.	8a/	.	8cc/	.	8cc\	nos-
.	.	8e/J	.	8b/J	.	8b\	-tra
=103	=103	=103	=103	=103	=103	=103	=103
2r	.	8a/L	.	8a\L	.	8cc\	man-
.	.	8d/J	.	16b\L	.	16b\LL	-ci-
.	.	.	.	16a\JJ	.	16a\JJ	.
.	.	4e/	.	8b\L	.	8b\	-pe-
.	.	.	.	8ee\J	.	8ee\	-tur
!	!	!	!	!LO:LB:g=original	!	!	!
=104	=104	=104	=104	=104	=104	=104	=104
2r	.	8a/L	.	8a/L	.	8a\	et
.	.	8g#X/	.	8b/	.	8b\	no-
.	.	8a/	.	8cc/	.	8cc\	-bis-
.	.	8e/J	.	8b/J	.	8b\	-cu(m)
=105	=105	=105	=105	=105	=105	=105	=105
2r	.	8a/L	.	8cc\L	.	8cc\	co-
.	.	8d/J	.	16b\L	.	16b\LL	-ro-
.	.	.	.	16a\JJ	.	16a\JJ	.
!	!	!	!	!	!	!	!LO:MO:mod=ne
.	.	4e/	.	8b/L	.	8b\	-na-
.	.	.	.	8e/J	.	8ee\	-tur
=106	=106	=106	=106	=106	=106	=106	=106
2r	.	8g/L	.	8.ee\L	.	8.ee\	vi-
.	.	8g/	.	.	.	.	.
.	.	.	.	16dd\Jk	.	16dd\	-ta
!	!	!	!	!	!	!LO:LB:g=original	!
.	.	8a/	.	16cc\LL	.	16cc\LL	De-
.	.	.	.	16b\	.	16b\JJ	.
.	.	8d/J	.	16cc\	.	16cc\LL	-i
.	.	.	.	16a\JJ	.	16a\JJ	.
=107	=107	=107	=107	=107	=107	=107	=107
2r	.	8.e/L	.	8.b/L	.	8.b\	lau-
.	.	16e/Jk	.	16b/Jk	.	16b\	-di-
.	.	4A/	.	4a/	.	4a\	-bus
!	!	!LO:LB:g=original	!	!	!	!	!
=108	=108	=108	=108	=108	=108	=108	=108
!	!	!	!	!	!LO:DY:a:t=piano	!	!
2r	.	8a/L	.	8a\L	p	8a\	per
.	.	8g#X/	.	8b\	.	8b\	vos
.	.	8a/	.	8cc\	.	8cc\	nos-
.	.	8e/J	.	8b\J	.	8b\	-tra
=109	=109	=109	=109	=109	=109	=109	=109
2r	.	8a/L	.	8cc|\L	.	8cc\	man-
.	.	8d/	.	16b\L	.	16b\LL	-ci-
.	.	.	.	16a\JJ	.	16a\JJ	.
.	.	8e/	.	8b\L	.	8b\	-pe-
.	.	8e/J	.	8ee\J	.	8ee\	-tur
=110	=110	=110	=110	=110	=110	=110	=110
2r	.	8a/L	.	8a\L	.	8a\	et
.	.	8g#X/	.	8b\	.	8b\	no-
.	.	8a/	.	8cc\	.	8cc\	-bis-
.	.	8e/J	.	8b\J	.	8b\	-cum
=111	=111	=111	=111	=111	=111	=111	=111
2r	.	8a/L	.	8cc\L	.	8cc\	co-
.	.	8d/J	.	16b\L	.	16b\LL	-ro-
.	.	.	.	16a\JJ	.	16a\JJ	.
!	!	!LO:TX:t=P:problem=nadliczbowa 4r	!	!	!	!	!
!	!	!LO:N:vis=4	!	!	!	!LO:LB:g=original	!
.	.	8e/	.	8b/L	.	8b\	-ne-
!	!	!LO:N:vis=4	!	!	!	!	!LO:MO:mod=tur
.	.	8r	.	8e/J	.	8e/	-tus
!	!	!	!	!LO:LB:g=original	!	!	!
=112	=112	=112	=112	=112	=112	=112	=112
2r	.	8g#X/L	.	8.ee\L	.	8.ee\	vi-
.	.	8g#/	.	.	.	.	.
.	.	.	.	16dd\Jk	.	16dd\	-ta
.	.	8a/	.	16cc\LL	.	16cc\LL	De-
.	.	.	.	(16b\	.	16b\JJ	.
.	.	8d/J	.	16cc\)	.	16cc\LL	-i
!	!	!	!	!	!	!LO:TX:t=P:problem=brak kreski taktowej	!
.	.	.	.	16a|\JJ	.	16a\JJ	.
=113	=113	=113	=113	=113	=113	=113-	=113
!LO:TX:t=Da Capo	!	!	!	!	!	!	!
2r	.	8.e/L	.	8.bm/L	.	8.b\	lau-
.	.	16e/Jk	.	16b/Jk	.	16b\	-di-
!	!	!LO:TX:t=Da Capo	!	!	!	!LO:TX:t=Da Capo	!
.	.	4A/	.	8a/L	.	4a\	-bus
!	!	!	!	!LO:TX:t=Da Capo	!	!	!
.	.	.	.	8A/J	.	.	.
==	==	==	==	==	==	==	==
*-	*-	*-	*-	*-	*-	*-	*-
!!!RDF**kern: < = below
!!!RDF**kern: > = above
!!!RDF**kern: | = vertical stroke
!!!system-decoration: s1[(s2,s3)]s4
!!!ENC: Kamil Watkowski
!!!END: 2020-12-06
!!!ENC: Urszula Świątek
!!!END: 2022-03-28
!!!YEC: Copyright 2022 Narodowy Instytut Fryderyka Chopina (https://polishscores.org)
!!!YEM: License CC-BY-4.0 (https://creativecommons.org/licenses/by/4.0)
